X: 71
T:Miller of Droghan, The
M:C|
L:1/8
R:Reel
K:EMin
GA[|BE (3EEE DEB,E|DEGA BcBA|GE (3EEE DEB,E|DEGA B2BA|!
GE (3EEE CEB,E|DEGA BcBA|GE (3EEE DEB,E|DEGA B2BA|]!
G2BG DGBG|E2ef gedB|G2BG DGBA|GEGA B2BA|!
G2BG DGBG|E2ef gfed|faef deBA|GEGA B2BA|]
"!"GE "etc."(3EEE|!
